Facilitet_punkt_5800_Piktogrammer/Cirkel/SVG/NATURCENTER.svg

<svg xmlns="http://www.w3.org/2000/svg" width="5.5mm" height="5.5mm" viewBox="0 0 15.591 15.591">
  <rect width="15.591" height="15.591" rx="7.795" fill="#031E3A"/>
  <path d="M13.832,5.762,9.579,2.282a.276.276,0,0,0-.349,0L6.439,4.565,5.6,3.881a.276.276,0,0,0-.349,0L1.747,6.75a.161.161,0,0,0,.1.286h.406V11.61a.178.178,0,0,0,.178.177H13.1a.183.183,0,0,0,.163-.2V6.051l0,0h.472A.16.16,0,0,0,13.832,5.762ZM9.343,9.526a.8.8,0,0,1-1-.164l-.39.225v1.146a.089.089,0,0,1-.089.089H7.725a.089.089,0,0,1-.089-.089V9.587l-.39-.225a.8.8,0,0,1-1,.164,3.942,3.942,0,0,1-1-1.5,3.937,3.937,0,0,1,1.8.117.8.8,0,0,1,.359.948l.231.134v-1.2a.8.8,0,0,1-.642-.784,3.944,3.944,0,0,1,.8-1.62,3.934,3.934,0,0,1,.8,1.62.8.8,0,0,1-.642.784v1.2l.231-.134a.8.8,0,0,1,.359-.948,3.937,3.937,0,0,1,1.8-.117A3.942,3.942,0,0,1,9.343,9.526Z" fill="#fff"/>
</svg>

<?xml version="1.0" encoding="UTF-8"?>
<svg xmlns="http://www.w3.org/2000/svg" viewBox="0 0 15.59 15.59">
  <defs>
    <style>
      .cls-1 {
        fill: #071f39;
      }

      .cls-1, .cls-2 {
        stroke-width: 0px;
      }

      .cls-2 {
        fill: #fff;
      }
    </style>
  </defs>
  <g id="Cirkel">
    <rect class="cls-1" x="0" y="0" width="15.59" height="15.59" rx="7.8" ry="7.8"/>
  </g>
  <g id="ICONS">
    <path class="cls-2" d="M13.83,5.76l-4.25-3.48c-.1-.08-.25-.08-.35,0l-2.79,2.28-.84-.68c-.1-.08-.25-.08-.35,0l-3.51,2.87c-.12.1-.05.29.1.29h.41v4.57c0,.1.08.18.18.18h10.67c.09,0,.16-.09.16-.2v-5.54s0,0,0,0h.47c.15,0,.22-.19.1-.29ZM9.34,9.53c-.34.19-.75.12-1-.16l-.39.23v1.15s-.04.09-.09.09h-.14s-.09-.04-.09-.09v-1.15l-.39-.23c-.25.28-.66.36-1,.16-.41-.23-.79-1.06-1-1.5.49-.04,1.4-.12,1.8.12.34.19.48.59.36.95l.23.13v-1.2c-.37-.07-.64-.4-.64-.78,0-.47.52-1.22.8-1.62.28.4.8,1.15.8,1.62,0,.39-.28.71-.64.78v1.2l.23-.13c-.12-.35.02-.75.36-.95.41-.23,1.31-.16,1.8-.12-.21.44-.6,1.27-1,1.5Z"/>
  </g>
</svg>
